!!!COM: Lambardi, Francesco
!!!CDT:
!!!PTL: Canzonette a tre, quattro e cinque voci. Libro terzo
!!!PPP: Naples
!!!PPR: Vitale
!!!PDT: 1616
!!!PUB-format:
!!!RISM: 1616-15
!!!rime: 359
!!!OTL: Voi volete ch'io v'ami
!!!AGN: Madrigal
!!!SCT: Trm0359a
!!!SCA: Trm0359a
!!!original-voices: 3
!!!extant-voices: 1
!!!complete: N
!!!final: F
**kern	**text
*part1	*part1
*staff1	*staff1
*>[A,B,B1,B,B2]	*>[A,B,B1,B,B2]
*>A	*>A
*oclefC1	*
*clefG2	*
*I"Canto	*
*I'C	*
*k[b-]	*
*F:	*
*omet(C.3/2)	*
*M3/2	*
=1	=1
!LO:TX:a:t=A 3. Senza Basso. [Alto and Tenore missing]	!
2r	.
*col	*
[1f	Voi
=2	=2
2f]	.
1g	vo-
*Xcol	*
=3	=3
2a	-le-
2bnX	-te
2cc	ch'io
=4	=4
1cc	v'a-
2bnX	.
=5	=5
1.cc	-mi
=6	=6
2r	.
2r	.
2ff	E
=7	=7
1ee	non
2dd	vo-
=8	=8
1.dd	-le-
=9	=9
2cc	-te
2a	che
2f	per
=10	=10
1g	voi
2g	so-
=11	=11
1.f	-spi-
=12	=12
1.e	-ri,
=13	=13
2r	.
*col	*
1dd	so-
*Xcol	*
=14	=14
1dd	-spi-
2cc#X	.
!!LO:TX:a:cj:t=[whole-dot] &rarr; [whole]
=15	=15
*M2/2	*
*omet(C)	*
2dd	-ri,
=!|:	=!|:
*>B	*>B
[2dd	E
=16	=16
2dd]	.
4cc	non
4cc	vo-
=17	=17
1b-y	-le-
!!LO:TX:a:cj:t=[whole] &rarr; [whole-dot]
=18	=18
*M3/2	*
*omet(C.3/2)	*
1.a	-te
=19	=19
2r	.
2cc	che
2g	per
=20	=20
1b-y	voi
2f	so-
=21	=21
2a	-spi-
2.g	.
4f	.
=22	=22
1.g	.
=23	=23
[1.f	-ri:
=24	=24
1.f]	.
=25	=25
2a	Que-
2b-y	-sti
2cc	son
=26	=26
*col	*
2dd	pur
2ee	d'A-
[2ff	-mor
=27	=27
2ff]	.
[1ee-X	no-
=28	=28
2ee-]	.
2bnX	-vi
2cc	mar-
*Xcol	*
=29	=29
1.dd	-ti-
=30	=30
1.cc	-ri,
=31	=31
1.r	.
=32	=32
1.r	.
=33	=33
2cc	Que-
2cc	-sti
2cc	son
=34	=34
1a	pur
2a	d'A-
=35	=35
*col	*
[1.f	-mor
=36	=36
2f]	.
[1b-y	no-
=37	=37
2b-y]	.
2a	-vi
2g	mar-
*Xcol	*
=38	=38
1.g	-ti-
!!LO:TX:a:cj:t=[whole] &rarr; [whole-dot]
=39	=39
*>B1	*>B1
*M2/2	*
*omet(C)	*
2f	-ri.
[2dd	E
=40:|!	=40:|!
*>B2	*>B2
1.f/	ri.
==	==
*-	*-
!!!RDF**kern: > = above
!!!RDF**kern: i = editorial accidental
!!!RDF**kern: l = terminal long
!!!ENC: Emiliano Ricciardi
!!!END: 2019/01/01
!!!EED: Schleuse, Paul
!!!EEV: 2019/03/24
!!!YEC: Copyright 2018 Emiliano Ricciardi, All Rights Reserved
!!!ONB: Translated from MusicXML on 2019/03/24 and edited by Craig Stuart Sapp
!!@@BEGIN:	VERSEDATA
!!@SOLERTI:	359
!!@CATALOGNUM:	Trm0359
!!@LAST_MODIFIED: 2020/07/12
!!@TITLE:		Voi volete ch'io v'ami
!!@GENRE:		canzonetta
!!@MANUSRC:	Flc<sub>2</sub>
!!@PRINTSRC:	none
!!@@BEGIN:	VERSES
!!@ABOUTIT:
!!@ABOUTEN:
!!@EDITOR:	Solerti, Angelo
!!@EDITION_TITLE: Le Rime di Torquato Tasso
!!@EDITION_LOC:	Bologna
!!@EDITION_PUB:	Romagnoli-Dall’Acqua
!!@EDITION_DATE:  1898-1902
!!@EDITION_VOL:	2
!!@EDITION_PAGE:  395
!!@TRANSLATOR:	Emiliano Ricciardi and Amyrose McCue Gill
!!@VERSE:
!!	Voi volete ch'io v'ami
!!	E non volete che per voi sospiri:
!!	Questi son pur d'Amor novi martiri!
!!	Se con gli occhi m'ardete,
!!	E l'alma è vaga di sì dolce ardore,
!!	Come può star la fiamma chiusa al core?
!!	Se il mio foco vi piace
!!	E s'io mostrarlo co' sospir m'ingegno,
!!	Perché, crudel, così li avete a sdegno?
!!@TVERSE:
!!	You want that I love you
!!	And do not want that I sigh for you:
!!	These are indeed Love’s new tortures!
!!	If with your eyes you burn me,
!!	And my soul is faint with such sweet ardor,
!!	How can the flame stay shut within my heart?
!!	If my fire is pleasing to you
!!	And if I use my wits to show it with sighs,
!!	Why, cruel one, do you thus hold them in disdain?
!!@@END:		VERSES
!!@OTHER_CRIT_ED:   None
!!@ATTRIBUTION_ABOUT:	Secure
!!		<br>
!!		This poem appears in the partly autograph manuscript Tassiana N.6.5, Civica Biblioteca Angelo Mai, Bergamo. According to [Massimo Castellozzi] {footnote: Massimo Castellozzi, "Aspetti della tradizione delle <i>Rime disperse</i> di Torquato Tasso," <i>L'ellisse. Studi storici di letteratura italian</i> VIII, vol. 2 (2013): 78}, the folios 164r-172v, which include <i>Rime</i> 353, 354, 356, 358, 359, 361, and NSM1, are in Tasso's hand.
!!@DATING:	Early 1590s
!!		<br>
!!		Before being incorporated into the manscript Tassiana N.6.5, Civica Biblioteca Angelo Mai, Bergamo, this poem used to belong to the Torella codex (MA 462, Pierpont Morgan Library, New York City, NY), a manuscript assembled in Naples and containing for the most part poems and letters that Tasso wrote during his stay in the city in the early 1590s.
!!@DEDICATEE:
!!@COMMENTARY:
!!@@END:		VERSEDATA
!!@@BEGIN:	SETTING
!!@CATALOGNUM:	Trm0359a
!!@RIMETITLE:	Voi volete ch'io v'ami
!!@SOLERTI:	359
!!@COMPOSER:	Lambardi, Francesco
!!@PRINCEPSTITLE:	Canzonette a tre, quattro e cinque voci. Libro terzo
!!@PRINCEPSLOC:	Napoli
!!@NORMLOC:	Naples
!!@NORMPUB:	Vitale
!!@NORMPUBSHORT:	Vitale
!!@PRINCEPSPUB:	Vitale
!!@PRINCEPSYEAR:	1616
!!@PRINCEPSRISM:	1616-15
!!@REPRINTS:	
!!@OVOICES:	3
!!@EXTANTVOICES:	1
!!@PARTBOOKS:	CAT
!!@EXTPARTBOOKS:	C
!!@OCLEFS:	C1
!!@OMENSURATION:	C-dot 3/2; C; C-dot 3/2; C
!!@OKEYSIG:	b-
!!@FINAL:	F
!!@TIMPEDITOR:	Schleuse, Paul
!!@NOTE:		
!!@@END:		SETTING
